resources/icons/16px/bug.svg

<svg width="16" height="16" viewBox="0 0 16 16" fill="none" xmlns="http://www.w3.org/2000/svg">
<path fill-rule="evenodd" clip-rule="evenodd" d="M5 2.99963C5.0002 1.34295 6.34327 0 8 0C9.65673 0 10.9998 1.34295 11 2.99964C11.5897 3.44255 12.0782 4.0128 12.4248 4.66955L13 4.38197V3C13 2.44772 13.4477 2 14 2C14.5523 2 15 2.44772 15 3V5C15 5.37877 14.786 5.72504 14.4472 5.89443L12.9861 6.62496C12.9953 6.74877 13 6.87384 13 7V8H15C15.5523 8 16 8.44771 16 9C16 9.55229 15.5523 10 15 10H13C13 10.5002 12.9266 10.9832 12.7899 11.4389L14.3714 12.0715C14.751 12.2234 15 12.5911 15 13V15C15 15.5523 14.5523 16 14 16C13.4477 16 13 15.5523 13 15V13.677L11.8334 13.2104C10.9162 14.3044 9.53932 15 8 15C6.46068 15 5.08383 14.3044 4.16664 13.2104L3 13.677V15C3 15.5523 2.55228 16 2 16C1.44772 16 1 15.5523 1 15V13C1 12.5911 1.24895 12.2234 1.62861 12.0715L3.21015 11.4389C3.07345 10.9832 3 10.5002 3 10H1C0.447715 10 0 9.55229 0 9C0 8.44771 0.447715 8 1 8H3V7C3 6.87384 3.00467 6.74877 3.01385 6.62496L1.55279 5.89443C1.214 5.72504 1 5.37877 1 5V3C1 2.44772 1.44772 2 2 2C2.55228 2 3 2.44772 3 3V4.38197L3.57517 4.66955C3.92179 4.01279 4.41034 3.44255 5 2.99963ZM5 9V10C5 11.6569 6.34315 13 8 13C9.65685 13 11 11.6569 11 10V9V7C11 5.34315 9.65685 4 8 4C6.34315 4 5 5.34315 5 7V9Z" fill="#111418"/>
</svg>

<svg xmlns="http://www.w3.org/2000/svg" viewBox="0 0 16 16">
  <path d="M5 3a3 3 0 0 1 6 0 5 5 0 0 1 1.425 1.67L13 4.382V3a1 1 0 1 1 2 0v2a1 1 0 0 1-.553.894l-1.46.731q.012.186.013.375v1h2a1 1 0 1 1 0 2h-2a5 5 0 0 1-.21 1.439l1.581.633A1 1 0 0 1 15 13v2a1 1 0 1 1-2 0v-1.323l-1.167-.467A4.99 4.99 0 0 1 8 15a4.99 4.99 0 0 1-3.833-1.79L3 13.677V15a1 1 0 1 1-2 0v-2a1 1 0 0 1 .629-.928l1.581-.633A5 5 0 0 1 3 10H1a1 1 0 1 1 0-2h2V7q0-.189.014-.375l-1.461-.73A1 1 0 0 1 1 5V3a1 1 0 0 1 2 0v1.382l.575.288A5 5 0 0 1 5 3m0 6v1a3 3 0 1 0 6 0V7a3 3 0 0 0-6 0z"/>
</svg>
